!!!COM: Bach, Johann Sebastian
!!!OPR: Joh. Seb. Bachs vierstimmige Choralgesänge
!!!XEN: Four-part Chorales
!!!OTL: Chorale 77. Herr, ich habe missgehandelt
!!!SCT: BWV 330
!!!SCA: Thematisch-systematisches Verzeichnis der musikalischen Werke Johann Sebastian Bach: Bach-Werke-Verzeichnis (Schmieder)
!!!YOR: Bach Gesellschaft Edition xxxix
!!!ENC: Steven Rasmussen
!!!CDT: 1685/3//-1750/7/28/
!!!OCY: Deutschland
!!!YEC: Copyright (c) 1994, 2000 Center for Computer Assisted Research in the Humanities
!!!YEM: Rights to all derivative editions reserved
!!!YEN: United States of America
**kern	**silbe	**kern	**kern	**silbe	**kern	**silbe
*I"[BASSO]	*I"[BASSO]	*I"[TENORE]	*I"[ALTO]	*I"[ALTO]	*I"[SOPRANO]	*I"[SOPRANO]
*>[A,A,B]	*	*>[A,A,B]	*>[A,A,B]	*	*>[A,A,B]	*
*>A	*	*>A	*>A	*	*>A	*
*clefF4	*	*clefGv2	*clefG2	*	*clefG2	*
*k[]	*	*k[]	*k[]	*	*k[]	*
*a:	*	*a:	*a:	*	*a:	*
*M4/4	*	*M4/4	*M4/4	*	*M4/4	*
=1-	=1-	=1-	=1-	=1-	=1-	=1-
8AAL	.	8cL	8eL	.	4a	Herr,ich
8BBJ	.	8BJ	8dJ	.	.	.
8CL	.	4A	4c	.	8eL	ichbin
8DJ	.	.	.	.	8f#J	.
4E	.	8EL	4B	.	4g#	ha-nicht
.	.	8eJ	.	.	.	.
4F#	.	8dL	4A	.	4a	-beden
.	.	8cJ	.	.	.	.
=2	=2	=2	=2	=2	=2	=2
8G#L	.	8BL	4e	.	8bL	miss-Weg
8EJ	.	8G#J	.	.	16ccL	.
.	.	.	.	.	16ddJJ	.
8AL	.	4A	8eL	.	8ccL	-ge-ge-
8DJ	.	.	8fJ	.	8bJ	.
8EL	.	8AL	4e	.	4b	-han--wan-
8EEJ	.	8G#J	.	.	.	.
4AA;	.	4c;	4e;	.	4a;	-delt,-delt,
=3	=3	=3	=3	=3	=3	=3
(8AA	.	4e	8aL	.	4cc	jaden
4A)	.	.	8gJ	.	.	.
.	.	4d	8fL	.	4b	michdu
8G#	.	.	8eJ	.	.	.
8AL	.	4c	(8e	.	4a	drücktmir
8FJ	.	.	4a)	.	.	.
8DL	.	8FL	.	.	4b	derge-
8EJ	.	8EJ	8g#	.	.	.
=4	=4	=4	=4	=4	=4	=4
8AAL	.	(8E	8aL	.	4cc	Sün--zei-
8GGJ	.	4A)	8eJ	.	.	.
4FF	.	.	8aL	.	4dd	-den-get
.	.	16G#LL	16bL	.	.	.
.	.	16AJJ	16aJJ	.	.	.
2EE;	.	2B;	2g#;	.	2ee;	Last;hast;
=5:|!	=5:|!	=5:|!	=5:|!	=5:|!	=5:|!	=5:|!
*>B	*	*>B	*>B	*	*>B	*
8AAL	.	4c	4a	.	4ee	und
8AJ	.	.	.	.	.	.
8GL	.	4d	4a	.	4ff	jetzt
8FJ	.	.	.	.	.	.
4E	.	8dL	4g	.	4gg	wollt'
.	.	8cJ	.	.	.	.
8FL	.	4c	8aL	.	4cc	ich
8EJ	.	.	8gJ	.	.	.
=6	=6	=6	=6	=6	=6	=6
4D	gern	8c	8a	gern	4ff	gern
.	.	8B	8dd	aus	.	.
8EL	aus	(4.c	[4.g	Schre-	4ee	aus
8FJ	.	.	.	.	.	.
8GL	Schre-	.	.	.	4dd	Schre-
8GGJ	.	8B)	16gLL]	.	.	.
.	.	.	16fJJ	.	.	.
4C;	-cken	4G;	4e;	-cken	4cc;	-cken
=7	=7	=7	=7	=7	=7	=7
8GL	.	8BL	8gL	.	4dd	mich
8FJ	.	8dJ	8aJ	.	.	.
8EL	.	8gL	4b	.	4dd	vor
8DJ	.	8fJ	.	.	.	.
8CL	.	4.e	8bL	.	4ee	dei-
8DJ	.	.	8g#J	.	.	.
8CL	.	.	8aL	.	4a	-nem
8BBJ	.	8d	8gnJ	.	.	.
=8	=8	=8	=8	=8	=8	=8
8AAL	.	8cL	8fL	.	4dd	Zorn
8GG#J	.	8BJ	8eJ	.	.	.
8AAL	.	4A	8eL	.	8ccL	ver-
8DJ	.	.	8fJ	.	8bJ	.
4E	.	4A	4.e	.	2b	-ste-
4EE	.	4G#	.	.	.	.
.	.	.	8d	.	.	.
=9	=9	=9	=9	=9	=9	=9
2AA;	.	2E;	2c#;	.	2a;	-cken.
2r	.	2r	2r	.	2r	.
==|!	==|!	==|!	==|!	==|!	==|!	==|!
*-	*-	*-	*-	*-	*-	*-
!!!RWG: Key is interpreted using the Humdrum key tool.
!!!URL-pdf: https://s9.imslp.org/files/imglnks/usimg/6/6b/IMSLP24489-PMLP09471-CCARH_Bach_Chorales.pdf#page=55 Musedata edition
!!!URL-pdf: https://s9.imslp.org/files/imglnks/usimg/7/7a/IMSLP04155-Bach_-_BGA_253-438.pdf#page=42 	Bach-Gesellschaft Ausgabe, Band 39 (pp.175-276) Leipzig: Breitkopf und Härtel, 1892. Plate B.W. XXXIX.
!!!END: 1994/06/08
!!!EMD: Converted from MuseData to Humdrum Dec 19, 2000, by Andreas Kornstaedt using muse2kern.
!!!EED: Craig Stuart Sapp
!!!EEV: 2024/03/31
!!!filter-keyboard: extract -i kern | satb2gs
!!!title: @{OTL} (@{SCT})
